X:1
T:Tianjin, 76.76 D
T:Tianjin, 76.76 D
T:George Coles Stebbins, 1894
T:Public Domain Courtesy of the Cyber Hymnal™
C:George Coles Stebbins, 1894
Z:Public Domain
Z:Courtesy of the Cyber Hymnal™
%%score ( 1 2 ) ( 3 4 )
L:1/8
Q:1/4=98
M:3/4
K:F
V:1 treble 
V:2 treble 
V:3 bass 
V:4 bass 
V:1
 [Fc]2 | [Fc]3 [FA] [FB][FA] | [FA]2 [EG]2 [FA]2 | [EB]3 [CE] [CF][EG] | [FA]4 [FA]2 | %5
 [EG]3 [EA] [F=B][Fd] | [Ec]2 [EG]2 [Gc]2 | [Fc]3 [F=B] [FA][FB] | [Fc]4 [Ec]2 | %9
 [=Bd]3 [Ac] [G_B][^FA] | [Ac]2 [GB]2 [FB]2 | [EB]3 [EG] [Fc][EB] | [FA]4 [Fc]2 | %13
 [Af]3 [Fc] [FB][FA] | [Fe]2 !fermata![Fd]2 [Fd]2 | [Fc]3 [FA] [EB][EG] | F4 |] %17
V:2
 x2 | x6 | x6 | x6 | x6 | x6 | x6 | x6 | x6 | x6 | x6 | x6 | x6 | x6 | x6 | x6 | F4 |] %17
V:3
 [F,A,]2 | [F,A,]3 [F,C] [F,D][F,C] | [C,C]2 [C,C]2 [C,C]2 | [C,G,]3 [C,B,] [C,A,][C,C] | %4
 [F,C]4 [F,C]2 | [G,C]3 [G,C] [G,D][G,=B,] | [C,E]2 [C,E]2 [C,E]2 | [G,D]3 [G,D] [G,C]G, | %8
 [C,G,]4 [C,G,]2 | [C,E,]3 [C,F,] [C,G,][C,A,] | [C,^F,]2 [C,G,]2 [C,D]2 | %11
 [C,C]3 [C,B,] [C,A,][C,C] | [F,C]4 [F,A,]2 | [F,C]3 [A,C] [G,C][F,C] | %14
 [B,C]2 !fermata!B,2 [B,,B,]2 | [C,A,]3 [C,C] [C,G,][C,B,] | [F,A,]4 |] %17
V:4
 x2 | x6 | x6 | x6 | x6 | x6 | x6 | x5 G, | x6 | x6 | x6 | x6 | x6 | x6 | x2 B,2 x2 | x6 | x4 |] %17

